images/Guacamole-3.svg

<svg fill="none" height="60" viewBox="0 0 200 200" width="60" xmlns="http://www.w3.org/2000/svg" xmlns:xlink="http://www.w3.org/1999/xlink"><linearGradient id="a" gradientUnits="userSpaceOnUse" x1="-16.3987" x2="155.287" y1="257.402" y2="257.402"><stop offset=".00238381" stop-color="#ff931e"/><stop offset=".6622" stop-color="#0d2a28"/></linearGradient><linearGradient id="b"><stop offset=".00238381" stop-color="#ff931e"/><stop offset="1" stop-color="#fff"/></linearGradient><linearGradient id="c" gradientUnits="userSpaceOnUse" x1="140.628" x2="182.915" xlink:href="#b" y1="155.631" y2="155.631"/><linearGradient id="d" gradientUnits="userSpaceOnUse" x1="-3.20662" x2="71.8758" xlink:href="#b" y1="167.591" y2="167.591"/><linearGradient id="e" gradientUnits="userSpaceOnUse" x1="110.806" x2="122.488" y1="73.1691" y2="73.1691"><stop offset=".1269" stop-color="#cd907f"/><stop offset=".8455" stop-color="#691b26"/></linearGradient><clipPath id="f"><path d="m.446777 99.9157c0-54.8594 44.472323-99.331716 99.331723-99.331716 54.8595 0 99.3315 44.472316 99.3315 99.331716 0 54.8593-44.472 99.3313-99.3315 99.3313-54.8594 0-99.331723-44.472-99.331723-99.3313z"/></clipPath><g clip-path="url(#f)"><path d="m.446777 99.9157c0-54.8594 44.472323-99.331716 99.331723-99.331716 54.8595 0 99.3315 44.472316 99.3315 99.331716 0 54.8593-44.472 99.3313-99.3315 99.3313-54.8594 0-99.331723-44.472-99.331723-99.3313z" fill="#accdff"/><path d="m158.639 277.932c-1.104.828-2.209 1.656-3.313 2.393-2.117 1.472-4.142 3.037-6.259 4.51-2.577 9.572-5.246 19.144-7.823 28.716-1.841 6.719-3.682 13.346-5.523 20.065h-65.164l-5.0622-13.07-45.2836-.736c.2761-.736.4601-1.565.7363-2.301 3.0373-10.309 6.3507-23.378 9.4801-36.448.184-.92.4602-1.841.6442-2.761 1.8408-7.824 3.5896-15.647 5.2463-22.918 2.8533-12.794 5.2463-23.746 6.6269-29.729 4.0498-17.211-3.7736 2.393-21.8134 22.642-6.0747 6.811-18.31598 20.341-28.07221 18.684-.46019-.092-1.01247-.184-1.47267-.368-.9204-.368-1.84082-.829-2.57712-1.381-1.6567-1.196-2.8532-2.761-3.6816-4.234-.7363-1.288-1.2885-2.393-1.5647-3.129 0 0-.3681-.92-.6442-1.933-4.694-15.739 9.38802-40.773 9.38802-40.773 1.56468-2.854 3.03734-5.431 4.50998-7.916 10.4005-18.408 16.7513-28.9 26.8756-40.774 13.6219-15.922 28.6244-33.502 48.2289-42.338 3.4975-1.565 7.1791-2.853 10.9528-3.865.8283-.185 1.7487-.461 2.5771-.645 9.6642-2.025 18.6845-1.841 23.7465-1.564 2.577.184 4.142.368 4.142.368 1.656.276 3.129.552 4.51.828 5.614 1.197 9.756 2.761 11.873 3.59 1.84.736 3.681 1.472 5.43 2.301 1.841.92 3.682 1.84 5.43 2.853 14.819 8.375 25.127 19.88 30.189 27.06 5.799 8.191 9.849 17.671 12.058 27.98 6.166 29.176-1.841 64.52-24.391 94.893z" fill="#336859"/><path d="m114.183 272.685c31.754-33.134 41.418-67.281 29.637-81.823-7.455-9.204-25.035-12.61-37.46-6.995-12.7017 5.798-16.5674 19.512-21.8137 31.385-4.51 10.217-11.3209 22.182-22.3657 34.792 0-.369-2.9453-57.433-12.4254-58.354-8.6517-.828-55.50001 57.709-64.612 69.306-1.0124 1.289-1.5646 1.933-1.5646 1.933l5.2462 2.301 4.04982 1.749c9.75622 1.657 21.99748-11.781 28.07218-18.684 17.9477-20.249 25.8632-39.853 21.8134-22.642-2.2089 9.296-6.7189 30.833-11.7811 52.555-3.3134 14.082-6.8109 28.256-10.1243 39.301-2.0249 6.811-4.0498 12.517-5.7986 16.107h120.6638c4.418-16.291 8.928-32.49 13.346-48.781 4.234-1.657 6.351-3.13 6.259-4.51-.276-3.406-13.99-5.891-41.142-7.64z" fill="url(#a)" opacity=".17"/><path d="m182.936 183.131c-3.497-1.105-7.455-2.761-11.965-5.154-19.328-10.309-27.152-34.239-30.281-49.978 14.818 8.376 25.127 19.881 30.189 27.06 5.799 8.283 9.848 17.763 12.057 28.072z" fill="url(#c)" opacity=".05"/><path d="m71.8438 124.133c-10.4006 18.224-43.903 75.381-57.8011 84.125-7.54723 4.786-13.253689 2.669-17.30344-1.013 10.4005-18.408 16.75124-28.9 26.87564-40.773 13.6219-15.923 28.6244-33.503 48.2289-42.339z" fill="url(#d)" opacity=".05"/><path d="m135.168 125.238c-6.534 15.186-19.512 24.298-31.477 22.918-2.209-.277-12.0574-1.749-17.0276-10.677-4.5099-8.1-1.7487-16.383-1.2885-17.856 9.6641-2.025 18.6841-1.841 23.7461-1.564l8.744 1.196c5.614 1.197 9.756 2.761 11.873 3.59 1.841.828 3.682 1.564 5.43 2.393z" fill="#0d2a28" opacity=".36"/><path d="m125.505 121.188c-.369 10.216-8.468 18.04-17.396 18.316-10.0322.276-19.2363-9.112-18.3159-20.709 0-.092 0-.184 0-.276.1841-1.197.4603-3.037.8284-5.246 1.2886-7.916 2.0249-11.874 2.5771-13.07.4602-.9205 1.0125-1.6568 1.6567-2.3931 2.209-2.301 5.7067-3.8657 11.4127-6.3508 2.301-1.0124 5.339-2.1169 8.928-3.2214 2.577-.7363 5.431-1.4726 8.56-2.0248 0 2.0249.092 4.0497.184 6.0746.092 2.301.184 4.602.276 6.903v.2761c.092 2.8534.276 5.7064.46 8.5594.276 4.51.552 8.836.829 13.162z" fill="#df7d56"/><path d="m123.941 92.3798c-.092 0-.092 0-.184 0-.092.9204-2.946 19.2362-18.316 25.2192-6.4431 2.485-12.5177 1.748-15.6471 1.104 0-.092 0-.184 0-.276.1841-1.196.4603-3.037.8284-5.246 1.2886-7.916 2.0249-11.873 2.5771-13.07.4602-.9202 1.0125-1.6566 1.6567-2.3929l20.3409-9.5721c2.577-.7363 5.43-1.4727 8.56-2.0249.092 2.209.184 4.2338.184 6.2587z" fill="#002544" opacity=".13"/><path d="m129.37 67.6206c-.092 1.0124-.184 2.0249-.276 3.0373-.461 3.0373-1.289 5.1542-1.933 7.7313-.829.5523-1.933 1.1966-3.866 2.8533-2.577 2.301-4.326 4.602-5.522 6.8109-3.59 6.2587-3.59 11.9656-8.652 17.2116-6.351 6.535-20.0648 9.756-28.4404 4.418-6.811-4.234-7.1791-15.9231-8.0075-39.1172 0 0-.5522-16.4751 6.1667-28.6244.5522-1.0124 1.2885-1.8407 1.5646-2.2089l.0921-.092.092-.0921c.1841-.1841.3682-.3682.4602-.5522.2761-.2762.5523-.5523.8284-.8284.1841-.1841.3681-.3682.5522-.5522.1841-.1841.4602-.3682.6443-.5523.092-.092.2761-.1841.3682-.2761.1841-.1841.3681-.2761.6442-.4602 7.3632-4.8781 17.856-5.1542 25.587-2.393.46.184.828.2761 1.289.4602.46.184.828.3681 1.196.5522s.829.3682 1.197.6443c.368.1841.644.3682 1.012.5522h.092c.092.0921.368.1841.644.3682.277.1841.553.3682.829.5522.276.1841.46.3682.736.5523 1.565 1.1965 3.037 2.5771 4.234 4.1418.184.184.368.4602.552.6442 5.431 7.3632 7.547 17.0274 7.916 25.219z" fill="#df7d56"/><path d="m129.371 67.6208c-.092 1.0124-.184 2.0249-.276 3.0373-.461 3.0373-1.289 5.1542-1.933 7.7314-.46 1.9328-.829 4.0497-.829 7.087 0 4.0498.553 7.3632 1.013 9.4801-1.657.3682-4.418.6443-6.075-.8283-.46-.4602-.828-1.1966-1.749-2.5772 0 0-1.012-1.7487-1.748-3.4054-2.025-4.7861-2.209-15.7388-3.314-15.9229-.368 0-.828.8283-1.749 4.602-.828 0-1.748.092-2.669 0-2.025-.0921-3.865-.4602-5.338-.9204.092-4.2339.092-8.6518 0-13.3458-.184-5.1542-.46-10.0323-.92-14.7264-8.284-2.0249-16.6596-3.9577-24.9432-5.9826.4602-.8283 1.0124-1.5646 1.5647-2.2089l.092-.0921.092-.092c.1841-.1841.3682-.3681.4602-.5522.2762-.2761.5523-.5523.8284-.8284.1841-.1841.3682-.3681.5522-.5522.1841-.1841.4603-.3682.6443-.5523.0921-.092.2762-.1841.3682-.2761.1841-.1841.3681-.2761.6442-.4602 7.3632-4.8781 17.856-5.1542 25.587-2.393.46.1841.829.2761 1.289.4602s.828.3681 1.196.5522.829.3682 1.197.6443c.368.1841.644.3682 1.012.5522h.092c.092.0921.368.1841.644.3682.277.1841.553.3682.829.5522.276.1841.46.3682.736.5523 1.565 1.1965 2.945 2.5771 4.234 4.1418.184.184.368.4602.552.6442 5.247 6.9951 8.376 16.4752 7.916 25.311z" fill="#302c34"/><path d="m83.1391 72.4566c.4578-.9644.0843-2.0996-.8341-2.5355-.9185-.4359-2.0341-.0075-2.4918.9568-.4578.9644-.0843 2.0995.8342 2.5355.9184.4359 2.034.0075 2.4917-.9568z" fill="#302c34"/><path d="m125.045 76.1803c0 4.7861-3.221 8.6518-7.087 8.6518-3.221 0-5.891-2.4851-6.811-5.9826-.184-.8284-.368-1.6568-.368-2.5772 0-4.786 3.221-8.6517 7.087-8.6517 1.749 0 3.313.7363 4.602 2.0249 1.565 1.4726 2.577 3.8657 2.577 6.5348z" fill="#df7d56"/><path d="m122.468 69.5537c-4.141 3.4975-9.112 7.5473-11.321 9.204-.184-.8284-.368-1.6567-.368-2.5771 0-4.7861 3.222-8.6518 7.087-8.6518 1.749 0 3.406.8284 4.602 2.0249z" fill="url(#e)" opacity=".25"/><path d="m89.1013 63.5693-8.3855-6.6089-1.6522 2.0964 8.3855 6.6089z" fill="#302c34"/><path d="m80.1284 97.4419c-.2761 0-.4602-.1841-.5522-.4602s.092-.5522.3681-.6442c2.5771-.6443 4.8781-1.8409 6.903-3.4976.9204-.7363 1.8409-1.6567 2.5772-2.5771.1841-.2761.5522-.2761.7363-.092.2761.1841.2761.5522.092.7363-.8284 1.0124-1.7488 1.9328-2.7612 2.7612-2.1169 1.7488-4.602 2.9453-7.3632 3.6816.092.092 0 .092 0 .092z" fill="#000"/><path d="m79.7606 67.1606s-15.4627 13.714-12.5175 15.923c2.9453 2.2089 5.7985 2.485 5.7985 2.485z" fill="#df7d56"/></g></svg>

<svg width="200" height="200" viewBox="0 0 200 200" fill="none" xmlns="http://www.w3.org/2000/svg">
<g clip-path="url(#clip0_3_13501)">
<path d="M0.446777 99.9157C0.446777 45.0563 44.9191 0.583984 99.7785 0.583984V0.583984C154.638 0.583984 199.11 45.0563 199.11 99.9157V99.9157C199.11 154.775 154.638 199.247 99.7785 199.247V199.247C44.9191 199.247 0.446777 154.775 0.446777 99.9157V99.9157Z" fill="#ACCDFF"/>
<path d="M158.639 277.932C157.535 278.76 156.43 279.588 155.326 280.325C153.209 281.797 151.184 283.362 149.067 284.835C146.49 294.407 143.821 303.979 141.244 313.551C139.403 320.27 137.562 326.897 135.721 333.616H70.557L65.4948 320.546L20.2112 319.81C20.4873 319.074 20.6713 318.245 20.9475 317.509C23.9848 307.2 27.2982 294.131 30.4276 281.061C30.6116 280.141 30.8878 279.22 31.0718 278.3C32.9126 270.476 34.6614 262.653 36.3181 255.382C39.1714 242.588 41.5644 231.636 42.945 225.653C46.9948 208.442 39.1714 228.046 21.1316 248.295C15.0569 255.106 2.81562 268.636 -6.94061 266.979C-7.4008 266.887 -7.95308 266.795 -8.41328 266.611C-9.33368 266.243 -10.2541 265.782 -10.9904 265.23C-12.6471 264.034 -13.8436 262.469 -14.672 260.996C-15.4083 259.708 -15.9605 258.603 -16.2367 257.867C-16.2367 257.867 -16.6048 256.947 -16.8809 255.934C-21.5749 240.195 -7.49288 215.161 -7.49288 215.161C-5.9282 212.307 -4.45554 209.73 -2.9829 207.245C7.4176 188.837 13.7684 178.345 23.8927 166.471C37.5146 150.549 52.5171 132.969 72.1216 124.133C75.6191 122.568 79.3007 121.28 83.0744 120.268C83.9027 120.083 84.8231 119.807 85.6515 119.623C95.3157 117.598 104.336 117.782 109.398 118.059C111.975 118.243 113.54 118.427 113.54 118.427C115.196 118.703 116.669 118.979 118.05 119.255C123.664 120.452 127.806 122.016 129.923 122.845C131.763 123.581 133.604 124.317 135.353 125.146C137.194 126.066 139.035 126.986 140.783 127.999C155.602 136.374 165.91 147.879 170.972 155.059C176.771 163.25 180.821 172.73 183.03 183.039C189.196 212.215 181.189 247.559 158.639 277.932Z" fill="#336859"/>
<path opacity="0.17" d="M114.183 272.685C145.937 239.551 155.601 205.404 143.82 190.862C136.365 181.658 118.785 178.252 106.36 183.867C93.6583 189.665 89.7926 203.379 84.5463 215.252C80.0363 225.469 73.2254 237.434 62.1806 250.044C62.1806 249.675 59.2353 192.611 49.7552 191.69C41.1035 190.862 -5.74481 249.399 -14.8568 260.996C-15.8692 262.285 -16.4214 262.929 -16.4214 262.929L-11.1752 265.23L-7.12538 266.979C2.63084 268.636 14.8721 255.198 20.9468 248.295C38.8945 228.046 46.81 208.442 42.7602 225.653C40.5513 234.949 36.0413 256.486 30.9791 278.208C27.6657 292.29 24.1682 306.464 20.8548 317.509C18.8299 324.32 16.805 330.026 15.0562 333.616H135.72C140.138 317.325 144.648 301.126 149.066 284.835C153.3 283.178 155.417 281.705 155.325 280.325C155.049 276.919 141.335 274.434 114.183 272.685Z" fill="url(#paint0_linear_3_13501)"/>
<path opacity="0.05" d="M182.936 183.131C179.439 182.026 175.481 180.37 170.971 177.977C151.643 167.668 143.819 143.738 140.69 127.999C155.508 136.375 165.817 147.88 170.879 155.059C176.678 163.342 180.727 172.822 182.936 183.131Z" fill="url(#paint1_linear_3_13501)"/>
<path opacity="0.05" d="M71.8438 124.133C61.4432 142.357 27.9408 199.514 14.0427 208.258C6.49547 213.044 0.789011 210.927 -3.26074 207.245C7.13976 188.837 13.4905 178.345 23.6149 166.472C37.2368 150.549 52.2393 132.969 71.8438 124.133Z" fill="url(#paint2_linear_3_13501)"/>
<path opacity="0.36" d="M135.168 125.238C128.634 140.424 115.656 149.536 103.691 148.156C101.482 147.879 91.6336 146.407 86.6634 137.479C82.1535 129.379 84.9147 121.096 85.3749 119.623C95.039 117.598 104.059 117.782 109.121 118.059L117.865 119.255C123.479 120.452 127.621 122.016 129.738 122.845C131.579 123.673 133.42 124.409 135.168 125.238Z" fill="#0D2A28"/>
<path d="M125.505 121.188C125.136 131.404 117.037 139.228 108.109 139.504C98.0768 139.78 88.8727 130.392 89.7931 118.795C89.7931 118.703 89.7931 118.611 89.7931 118.519C89.9772 117.322 90.2534 115.482 90.6215 113.273C91.9101 105.357 92.6464 101.399 93.1986 100.203C93.6588 99.2825 94.2111 98.5462 94.8553 97.8099C97.0643 95.5089 100.562 93.9442 106.268 91.4591C108.569 90.4467 111.607 89.3422 115.196 88.2377C117.773 87.5014 120.627 86.7651 123.756 86.2129C123.756 88.2378 123.848 90.2626 123.94 92.2875C124.032 94.5885 124.124 96.8895 124.216 99.1905C124.216 99.2826 124.216 99.3746 124.216 99.4666C124.308 102.32 124.492 105.173 124.676 108.026C124.952 112.536 125.228 116.862 125.505 121.188Z" fill="#DF7D56"/>
<path opacity="0.13" d="M123.941 92.3798C123.849 92.3798 123.849 92.3798 123.757 92.3798C123.665 93.3002 120.811 111.616 105.441 117.599C98.9979 120.084 92.9233 119.347 89.7939 118.703C89.7939 118.611 89.7939 118.519 89.7939 118.427C89.978 117.231 90.2542 115.39 90.6223 113.181C91.9109 105.265 92.6472 101.308 93.1994 100.111C93.6596 99.1908 94.2119 98.4544 94.8561 97.7181L115.197 88.146C117.774 87.4097 120.627 86.6733 123.757 86.1211C123.849 88.3301 123.941 90.3549 123.941 92.3798Z" fill="#002544"/>
<path d="M129.37 67.6206C129.278 68.633 129.186 69.6455 129.094 70.6579C128.633 73.6952 127.805 75.8121 127.161 78.3892C126.332 78.9415 125.228 79.5858 123.295 81.2425C120.718 83.5435 118.969 85.8445 117.773 88.0534C114.183 94.3121 114.183 100.019 109.121 105.265C102.77 111.8 89.0562 115.021 80.6806 109.683C73.8696 105.449 73.5015 93.7599 72.6731 70.5658C72.6731 70.5658 72.1209 54.0907 78.8398 41.9414C79.392 40.929 80.1283 40.1007 80.4044 39.7325L80.4965 39.6405L80.5885 39.5484C80.7726 39.3643 80.9567 39.1802 81.0487 38.9962C81.3248 38.72 81.601 38.4439 81.8771 38.1678C82.0612 37.9837 82.2452 37.7996 82.4293 37.6156C82.6134 37.4315 82.8895 37.2474 83.0736 37.0633C83.1656 36.9713 83.3497 36.8792 83.4418 36.7872C83.6259 36.6031 83.8099 36.5111 84.086 36.327C91.4492 31.4489 101.942 31.1728 109.673 33.934C110.133 34.118 110.501 34.2101 110.962 34.3942C111.422 34.5782 111.79 34.7623 112.158 34.9464C112.526 35.1305 112.987 35.3146 113.355 35.5907C113.723 35.7748 113.999 35.9589 114.367 36.1429C114.367 36.1429 114.367 36.1429 114.459 36.1429C114.551 36.235 114.827 36.327 115.103 36.5111C115.38 36.6952 115.656 36.8793 115.932 37.0633C116.208 37.2474 116.392 37.4315 116.668 37.6156C118.233 38.8121 119.705 40.1927 120.902 41.7574C121.086 41.9414 121.27 42.2176 121.454 42.4016C126.885 49.7648 129.001 59.429 129.37 67.6206Z" fill="#DF7D56"/>
<path d="M129.371 67.6208C129.279 68.6332 129.187 69.6457 129.095 70.6581C128.634 73.6954 127.806 75.8123 127.162 78.3895C126.702 80.3223 126.333 82.4392 126.333 85.4765C126.333 89.5263 126.886 92.8397 127.346 94.9566C125.689 95.3248 122.928 95.6009 121.271 94.1283C120.811 93.6681 120.443 92.9317 119.522 91.5511C119.522 91.5511 118.51 89.8024 117.774 88.1457C115.749 83.3596 115.565 72.4069 114.46 72.2228C114.092 72.2228 113.632 73.0511 112.711 76.8248C111.883 76.8248 110.963 76.9168 110.042 76.8248C108.017 76.7327 106.177 76.3646 104.704 75.9044C104.796 71.6705 104.796 67.2526 104.704 62.5586C104.52 57.4044 104.244 52.5263 103.784 47.8322C95.5 45.8073 87.1244 43.8745 78.8408 41.8496C79.301 41.0213 79.8532 40.285 80.4055 39.6407L80.4975 39.5486L80.5895 39.4566C80.7736 39.2725 80.9577 39.0885 81.0497 38.9044C81.3259 38.6283 81.602 38.3521 81.8781 38.076C82.0622 37.8919 82.2463 37.7079 82.4303 37.5238C82.6144 37.3397 82.8906 37.1556 83.0746 36.9715C83.1667 36.8795 83.3508 36.7874 83.4428 36.6954C83.6269 36.5113 83.8109 36.4193 84.087 36.2352C91.4502 31.3571 101.943 31.081 109.674 33.8422C110.134 34.0263 110.503 34.1183 110.963 34.3024C111.423 34.4865 111.791 34.6705 112.159 34.8546C112.527 35.0387 112.988 35.2228 113.356 35.4989C113.724 35.683 114 35.8671 114.368 36.0511C114.368 36.0511 114.368 36.0511 114.46 36.0511C114.552 36.1432 114.828 36.2352 115.104 36.4193C115.381 36.6034 115.657 36.7875 115.933 36.9715C116.209 37.1556 116.393 37.3397 116.669 37.5238C118.234 38.7203 119.614 40.1009 120.903 41.6656C121.087 41.8496 121.271 42.1258 121.455 42.3098C126.702 49.3049 129.831 58.785 129.371 67.6208Z" fill="#302C34"/>
<path d="M83.1391 72.4566C83.5969 71.4922 83.2234 70.357 82.305 69.9211C81.3865 69.4852 80.2709 69.9136 79.8132 70.8779C79.3554 71.8423 79.7289 72.9774 80.6474 73.4134C81.5658 73.8493 82.6814 73.4209 83.1391 72.4566Z" fill="#302C34"/>
<path d="M125.045 76.1803C125.045 80.9664 121.824 84.8321 117.958 84.8321C114.737 84.8321 112.067 82.347 111.147 78.8495C110.963 78.0211 110.779 77.1927 110.779 76.2723C110.779 71.4863 114 67.6206 117.866 67.6206C119.615 67.6206 121.179 68.3569 122.468 69.6455C124.033 71.1181 125.045 73.5112 125.045 76.1803Z" fill="#DF7D56"/>
<path opacity="0.25" d="M122.468 69.5537C118.327 73.0512 113.356 77.101 111.147 78.7577C110.963 77.9293 110.779 77.101 110.779 76.1806C110.779 71.3945 114.001 67.5288 117.866 67.5288C119.615 67.5288 121.272 68.3572 122.468 69.5537Z" fill="url(#paint3_linear_3_13501)"/>
<path d="M89.1013 63.5693L80.7158 56.9604L79.0636 59.0568L87.4491 65.6657L89.1013 63.5693Z" fill="#302C34"/>
<path d="M80.1284 97.4419C79.8523 97.4419 79.6682 97.2578 79.5762 96.9817C79.4842 96.7056 79.6682 96.4295 79.9443 96.3375C82.5214 95.6932 84.8224 94.4966 86.8473 92.8399C87.7677 92.1036 88.6882 91.1832 89.4245 90.2628C89.6086 89.9867 89.9767 89.9867 90.1608 90.1708C90.4369 90.3549 90.4369 90.723 90.2528 90.9071C89.4244 91.9195 88.504 92.8399 87.4916 93.6683C85.3747 95.4171 82.8896 96.6136 80.1284 97.3499C80.2204 97.4419 80.1284 97.4419 80.1284 97.4419Z" fill="black"/>
<path d="M79.7606 67.1606C79.7606 67.1606 64.2979 80.8746 67.2431 83.0836C70.1884 85.2925 73.0416 85.5686 73.0416 85.5686L79.7606 67.1606Z" fill="#DF7D56"/>
</g>
<defs>
<linearGradient id="paint0_linear_3_13501" x1="-16.3987" y1="257.402" x2="155.287" y2="257.402" gradientUnits="userSpaceOnUse">
<stop offset="0.00238381" stop-color="#FF931E"/>
<stop offset="0.6622" stop-color="#0D2A28"/>
</linearGradient>
<linearGradient id="paint1_linear_3_13501" x1="140.628" y1="155.631" x2="182.915" y2="155.631" gradientUnits="userSpaceOnUse">
<stop offset="0.00238381" stop-color="#FF931E"/>
<stop offset="1" stop-color="white"/>
</linearGradient>
<linearGradient id="paint2_linear_3_13501" x1="-3.20662" y1="167.591" x2="71.8758" y2="167.591" gradientUnits="userSpaceOnUse">
<stop offset="0.00238381" stop-color="#FF931E"/>
<stop offset="1" stop-color="white"/>
</linearGradient>
<linearGradient id="paint3_linear_3_13501" x1="110.806" y1="73.1691" x2="122.488" y2="73.1691" gradientUnits="userSpaceOnUse">
<stop offset="0.1269" stop-color="#CD907F"/>
<stop offset="0.8455" stop-color="#691B26"/>
</linearGradient>
<clipPath id="clip0_3_13501">
<path d="M0.446777 99.9157C0.446777 45.0563 44.9191 0.583984 99.7785 0.583984V0.583984C154.638 0.583984 199.11 45.0563 199.11 99.9157V99.9157C199.11 154.775 154.638 199.247 99.7785 199.247V199.247C44.9191 199.247 0.446777 154.775 0.446777 99.9157V99.9157Z" fill="white"/>
</clipPath>
</defs>
</svg>
